src/assets/img/globalping/map_cluster.svg

<?xml version="1.0" encoding="UTF-8" standalone="no"?>
<svg
   width="68"
   height="68"
   viewBox="0 0 68 68"
   fill="none"
   version="1.1"
   id="svg349"
   sodipodi:docname="map-marker-group_desktop.svg"
   inkscape:version="1.1.1 (3bf5ae0, 2021-09-20)"
   xmlns:inkscape="http://www.inkscape.org/namespaces/inkscape"
   xmlns:sodipodi="http://sodipodi.sourceforge.net/DTD/sodipodi-0.dtd"
   xmlns="http://www.w3.org/2000/svg"
   xmlns:svg="http://www.w3.org/2000/svg">
  <sodipodi:namedview
     id="namedview351"
     pagecolor="#ffffff"
     bordercolor="#666666"
     borderopacity="1.0"
     inkscape:pageshadow="2"
     inkscape:pageopacity="0.0"
     inkscape:pagecheckerboard="0"
     showgrid="false"
     inkscape:zoom="12.411765"
     inkscape:cx="61.675355"
     inkscape:cy="34.040284"
     inkscape:window-width="1848"
     inkscape:window-height="1016"
     inkscape:window-x="72"
     inkscape:window-y="27"
     inkscape:window-maximized="1"
     inkscape:current-layer="svg349" />
  <g
     clip-path="url(#clip0_6010_2471)"
     id="g337">
    <path
       d="M30 2.3094C32.4752 0.880338 35.5248 0.880339 38 2.3094L59.4449 14.6906C61.9201 16.1197 63.4449 18.7607 63.4449 21.6188V46.3812C63.4449 49.2393 61.9201 51.8803 59.4449 53.3094L38 65.6906C35.5248 67.1197 32.4752 67.1197 30 65.6906L8.55513 53.3094C6.07993 51.8803 4.55514 49.2393 4.55514 46.3812V21.6188C4.55514 18.7607 6.07993 16.1197 8.55514 14.6906L30 2.3094Z"
       fill="url(#paint0_linear_6010_2471)"
       id="path331" />
    <path
       d="M30.375 4.95892C32.6182 3.66383 35.3818 3.66383 37.625 4.95892L57.3378 16.3401C59.581 17.6352 60.9628 20.0286 60.9628 22.6188V45.3812C60.9628 47.9714 59.581 50.3648 57.3378 51.6599L37.625 63.0411C35.3818 64.3362 32.6182 64.3362 30.375 63.0411L10.6622 51.6599C8.41903 50.3648 7.03719 47.9714 7.03719 45.3812V22.6188C7.03719 20.0286 8.41903 17.6352 10.6622 16.3401L30.375 4.95892Z"
       stroke="#69E7C8"
       stroke-width="1.5"
       id="path333" />
  </g>
  <defs
     id="defs347">
    <linearGradient
       id="paint0_linear_6010_2471"
       x1="34"
       y1="0"
       x2="34"
       y2="68"
       gradientUnits="userSpaceOnUse">
      <stop
         stop-color="#17D4A7"
         id="stop339" />
      <stop
         offset="1"
         stop-color="#17D4A7"
         id="stop341" />
    </linearGradient>
    <clipPath
       id="clip0_6010_2471">
      <rect
         width="68"
         height="68"
         fill="white"
         id="rect344" />
    </clipPath>
  </defs>
</svg>

<svg xmlns="http://www.w3.org/2000/svg" width="68" height="68" fill="none">
  <g clip-path="url(#a)">
    <path fill="url(#b)" d="M30 2.31a8 8 0 0 1 8 0l21.445 12.38a8 8 0 0 1 4 6.929V46.38a8 8 0 0 1-4 6.928L38 65.691a8 8 0 0 1-8 0L8.555 53.309a8 8 0 0 1-4-6.928V21.62a8 8 0 0 1 4-6.928L30 2.309Z"/>
    <path stroke="#69E7C8" stroke-width="1.5" d="M30.375 4.959a7.25 7.25 0 0 1 7.25 0L57.338 16.34a7.25 7.25 0 0 1 3.625 6.279V45.38a7.25 7.25 0 0 1-3.625 6.279L37.625 63.04a7.25 7.25 0 0 1-7.25 0L10.662 51.66a7.25 7.25 0 0 1-3.625-6.279V22.62a7.25 7.25 0 0 1 3.625-6.279L30.375 4.96Z"/>
  </g>
  <defs>
    <linearGradient id="b" x1="34" x2="34" y1="0" y2="68" gradientUnits="userSpaceOnUse">
      <stop stop-color="#17D4A7"/>
      <stop offset="1" stop-color="#17D4A7"/>
    </linearGradient>
    <clipPath id="a">
      <path fill="#fff" d="M0 0h68v68H0z"/>
    </clipPath>
  </defs>
</svg>
